X:1
T:Title
%%score { 1 | 2 }
L:1/8
M:4/4
K:G
V:1 treble nm="Grand Piano"
V:2 treble 
V:1
 z4 z2[Q:1/4=100] Bc | d2 G2 GAGF | E4 [EG]2 E2 | D G3 G2 B2 |[M:3/4] [FA]6 |[M:1/4] Bc | %6
[M:4/4] d2 G2 GAGF | E4 [EG]2 E2 | D [Gd]3 [FB]2 [FA]2 | G6 z2 | c3 c B2 B2 | [GB]2 A2 G2 A2 | %12
 B2 D2 E2 G2 |[M:3/4] [FA]6 |[M:1/4] Bc |[M:4/4] d2 G2 GAGF | E4 [EG]2 E2 | D [Gd]3 [FB]2 [FA]2 | %18
[M:8/4] G8 z8 |] %19
V:2
 z4 z2 [G,DG][G,CG] | [G,B,G]2 [G,B,D]2 [G,B,D][K:bass][G,B,D][G,B,D][G,B,D] | %2
 [C,G,C]4 [C,C]2 [C,G,C]2 | [G,B,][K:treble] [G,B,D]3 [G,B,D]2 [G,DG]2 |[M:3/4] [D,D]6 | %5
[M:1/4] [G,DG][G,CG] |[M:4/4] [G,B,G]2[K:bass] [G,B,D]2 [G,B,D][G,B,D][G,B,D][G,B,D] | %7
 [C,G,C]4 [C,C]2 [C,G,C]2 | [D,B,] [D,B,]3 [D,D]2 [D,C]2 | [G,B,]6 z2 | %10
 [G,EG]3 [G,EG] [G,DG]2 [G,DG]2 | [D,D]2 [D,CD]2 [D,B,D]2 [D,CD]2 | %12
 [G,D]2 [G,B,]2 [G,C]2 [G,B,D]2 |[M:3/4] [D,D]6 |[M:1/4][K:treble] [G,DG][G,CG] | %15
[M:4/4] [G,B,G]2 [G,B,D]2 [G,B,D][K:bass][G,B,D][G,B,D][G,B,D] | [C,G,C]4 [C,C]2 [C,G,C]2 | %17
 [D,B,] [D,B,]3 [D,D]2 [D,C]2 |[M:8/4] [G,B,]8 z8 |] %19

